boxicons/svg/logos/bxl-codepen.svg

<svg xmlns="http://www.w3.org/2000/svg" width="24" height="24" viewBox="0 0 24 24"><path d="M21.838 8.445c0-.001-.001-.001 0 0l-.003-.004-.001-.001v-.001a.809.809 0 0 0-.235-.228l-9.164-6.08a.834.834 0 0 0-.898 0L2.371 8.214A.786.786 0 0 0 2 8.897v6.16a.789.789 0 0 0 .131.448v.001l.002.002.01.015v.002h.001l.001.001.001.001c.063.088.14.16.226.215l9.165 6.082a.787.787 0 0 0 .448.139.784.784 0 0 0 .45-.139l9.165-6.082a.794.794 0 0 0 .371-.685v-6.16a.793.793 0 0 0-.133-.452zm-9.057-4.172 6.953 4.613-3.183 2.112-3.771-2.536V4.273zm-1.592 0v4.189l-3.771 2.536-3.181-2.111 6.952-4.614zm-7.595 6.098 2.395 1.59-2.395 1.611v-3.201zm7.595 9.311-6.96-4.617 3.195-2.15 3.765 2.498v4.269zm.795-5.653-3.128-2.078 3.128-2.105 3.131 2.105-3.131 2.078zm.797 5.653v-4.27l3.766-2.498 3.193 2.15-6.959 4.618zm7.597-6.11-2.396-1.611 2.396-1.59v3.201z"/></svg>

<svg xmlns="http://www.w3.org/2000/svg" width="24" height="24" viewBox="0 0 24 24"><path d="M21.838,8.445C21.838,8.444,21.837,8.444,21.838,8.445c-0.002-0.001-0.002-0.002-0.003-0.004l0,0	c-0.001,0-0.001-0.001-0.001-0.001c0-0.001,0-0.001,0-0.001c-0.063-0.093-0.145-0.171-0.235-0.228l-9.164-6.08	c-0.255-0.175-0.644-0.175-0.898,0L2.371,8.214C2.278,8.271,2.196,8.351,2.133,8.445C2.04,8.585,1.997,8.742,2,8.897v6.16	c-0.003,0.153,0.04,0.309,0.131,0.448c0,0,0,0,0,0.001c0.001,0.001,0.001,0.001,0.002,0.002l0,0c0.003,0.006,0.007,0.01,0.01,0.015	v0.002c0.001,0,0.001,0,0.001,0c0.001,0,0.001,0,0.001,0.001c0.001,0,0.001,0.001,0.001,0.001c0.063,0.088,0.14,0.16,0.226,0.215	l9.165,6.082c0.128,0.088,0.282,0.139,0.448,0.139c0.169,0,0.323-0.051,0.45-0.139l9.165-6.082c0.091-0.058,0.172-0.134,0.235-0.229	c0.094-0.141,0.139-0.3,0.136-0.456v-6.16C21.974,8.742,21.93,8.585,21.838,8.445z M12.781,4.273l6.953,4.613l-3.183,2.112	l-3.771-2.536V4.273z M11.189,4.273v4.189l-3.771,2.536L4.237,8.887L11.189,4.273z M3.594,10.371l2.395,1.59l-2.395,1.611V10.371z M11.189,19.682l-6.96-4.617l3.195-2.15l3.765,2.498V19.682z M11.984,14.029l-3.128-2.078l3.128-2.105l3.131,2.105L11.984,14.029z M12.781,19.682v-4.27l3.766-2.498l3.193,2.15L12.781,19.682z M20.378,13.572l-2.396-1.611l2.396-1.59V13.572z"/></svg>
